!!!!SEGMENT: pl-wn--mus-iii-105-719-2--005_zelenski-wladyslaw--25-preludyi-op-38-21-quasi-allegretto-na-temat-aniol-pasterzom-mowil.krn
!!!cenid: 18xx:3754
!!!COM: Żeleński, Władysław
!!!COM-rismID: pe41024455
!!!CDT: 1837/07/06-1921/01/23
!!!CNT: Polish
!!!GTL: 25 preludyi op. 38
!!!OTL: 21. Quasi Allegretto. Na temat „Anioł pasterzom mówił”
!!!OMV: 005
!!!PDT: 1881
!!!AGN:
!!!SMS-siglum: PL-Wn
!!!SMS-shelfmark: Mus.III.105.719/2
!!!SMS-shelfwork: 001-005 G
!!!SMS-variant:
!!!SMS-altvar:
!!!NIFC-rismSourceID:
!!!NIFC-rismChildID:
!!!NIFC-islandoraID: none
!!!URL-pdf-islandora:
!!!URL-scan: https://polona2.pl/item/25-preludyi-2-3-i-4-glosowych-na-organ-lub-fisharmonike-do-uzytku-organistow-i,ODE1NjEwNDA/2 @EN{Scan on Polona} @PL{Skany w portalu Polona}
!!!IIIF: https://polona2.pl/iiif/item/ODE1NjEwNDA/manifest.json
!!!ONB-nifc:
!!!AIN: 2 organ
!!!key: A-
**kern	**fing	**dynam	**kern	**fing	**dynam
*part2	*part2	*part2	*part1	*part1	*part1
*staff2	*	*	*staff1	*	*
*I"Organo	*	*	*I"Organo	*	*
*I'org	*	*	*I'org	*	*
*ICklav	*	*	*ICklav	*	*
*Iorgan	*	*	*Iorgan	*	*
*clefF4	*	*	*clefG2	*	*
*k[b-e-a-d-]	*	*	*k[b-e-a-d-]	*	*
*A-:	*	*	*A-:	*	*
*M4/4	*	*	*M4/4	*	*
*met(c)	*	*	*met(c)	*	*
*	*	*	*xywh-7:263,423,5292,1106	*	*
!	!	!	!LO:TX:a:i:t=1.)	!	!
!	!	!	!LO:TX:a:B:t=Quasi Allegretto. Na temat ,,Anioł Pasterzom mówił".	!	!
4ryy	.	.	(>4e-/	.	.
=1	=1	=1	=1	=1	=1
*^	*	*	*	*	*
*	*xywh-7:263,423,5292,1106	*	*	*	*	*
4r	[1AA-	.	.	4c/) 4a-	1 4	mf
(2A-/	.	1	.	((4c/ 4a-	2 5	.
.	.	.	.	4e-/)) 4b-	.	.
4G/	.	1	.	(>[4e-/ 4b-	2 4	.
=2	=2	=2	=2	=2	=2	=2
4.F/	2.AA-\]	2	.	4e-/] 4cc	.	.
.	.	.	.	4d-/ 4b-	1 4	.
8G/	.	1	.	.	.	.
4A-/)	.	2	.	4c/) 4a-	1 3	.
(8A-/L	4r	3	.	4r	.	.
8B-/J	.	.	.	.	.	.
=3	=3	=3	=3	=3	=3	=3
*	*	*	*	*^	*	*
2c/)	4.A-\	.	.	4ee-/	(1a-	2 5	.
.	.	.	<	(4ee-/	.	4	.
.	8G\	.	.	.	.	.	.
4r	2F\	.	.	4ff/)	.	.	.
(8c/L	.	2	.	(4ff/	.	5	.
8dn/J	.	1	.	.	.	.	.
=4	=4	=4	=4	=4	=4	=4	=4
4e-/	[2c\	3 2	[[	4ee-/	4g\	1 4	.
4f/	.	1	>	4ddn/	8an\L	2 5	.
.	.	.	.	.	8bn\J	3	.
4e-/)	4c\]	.	.	4.ee-/)	4.g\)	1 4	.
4r	8c\L	1	]	.	.	.	.
.	8B-\J	.	.	8r	8ryy	.	.
=5	=5	=5	=5	=5	=5	=5	=5
(2c/	2A-\	.	.	4ee-/	(4.a-\	2 5	.
.	.	.	.	(4ee-/	.	4	.
.	.	.	.	.	8g\	1	.
4d-/)	2D-\	1	.	(2ff/)	4f\)	1	.
(8d-/L	.	1	.	.	8f\L	.	.
8B-/J	.	2	.	.	8g\J	1	.
=6	=6	=6	=6	=6	=6	=6	=6
4c/)	(4.A-\	.	.	4ee-/)	4a-\	2 4	.
2.ryy	.	.	.	(4ee-/	(2a-\ 2cc	2 3 5	<
.	8G\	.	.	.	.	.	.
.	4F\	5	.	4dd-/)	.	4	.
.	4G\	3	.	(4dd-/	8g\L 8b-	1 3 5	.
.	.	.	.	.	8f\J	2	.
*v	*v	*	*	*	*	*	*
=7	=7	=7	=7	=7	=7	=7
!	!	!	!	!	!	!
4A-\)	2	.	4b-/) 4cc	[2e-\)	1 4	[ <
(8C\L	5	.	(4a-/ 4cc	.	3 5	.
8D-\J	4	.	.	.	.	.
4E-\	3	.	(2b-/)	2e-\_ [2g	2	.
4d-\	1	.	.	.	.	.
=8	=8	=8	=8	=8	=8	=8
*^	*	*	*	*	*	*
4c\)	4ryy	2	.	4ee-/)	4e-\] 4g]	.	.
(8f/L	(4F\	5 1	.	(4ee-/	2a-\	2 5	.
8c/J	.	2	.	.	.	.	.
4d-/)	4B-\)	3 1	.	4dd-/)	.	4	.
(8e-/L	4E-\	.	.	(4dd-/	[4g\	5	.
8B-/J	.	.	.	.	.	.	.
!LO:LB:g=original	!	!	!	!	!	!	!
=9	=9	=9	=9	=9	=9	=9	=9
*xywh-7:299,1437,5256,935	*	*	*	*xywh-7:299,1437,5256,935	*	*	*
4c/)	4A-\	.	.	4cc/)	4g\]	4	.
(8d-/L	(4D-\	.	.	4cc/	(4f\	1 5	.
8A-/J	.	.	.	.	.	.	.
2G/	4E-\	.	.	(2b-/	4g\)	2 3	.
.	4D-\	.	.	.	8g\L	1	.
.	.	.	.	.	8f\J	2	.
=10	=10	=10	=10	=10	=10	=10	=10
2.A-/	4C\	.	.	4ee-/	4e-\	1 5	.
.	8D-\L	.	.	4dd-/	8f\L	1 4	.
.	8E-\J	.	.	.	8g\J	.	.
.	4F\	.	.	4cc/	4a-\	2 3	.
*ped	*	*	*	*	*	*	*
4B-/)	4BB-\)	.	.	4dd-/)	4f\	1 4	.
=11	=11	=11	=11	=11	=11	=11	=11
!	!	!	!	!	!	!	!LO:HP:a
(2G/	(2E-\	.	.	(4.cc/	4e-\	2 5	>
.	.	.	.	.	4d-\	1	.
.	.	.	.	8b-/	.	4	.
*Xped	*	*	*	*	*	*	*
4A-/)	4AA-\)	.	.	4a-/)	4c\	1 3	]
!	!	!	!	!LO:TX:i:t=2.)	!	!	!
4r	4ryy	.	.	(4e-/	4r	2	p
=12	=12	=12	=12	=12	=12	=12	=12
8r	1r	.	.	4a-/)	4a-\	4	.
8en/L	.	4	.	.	.	.	.
(8g/	.	2	.	(4a-/	[4a-\	3	.
8f/J	.	1	.	.	.	.	.
8e-X/L	.	2	.	4b-/)	4a-\]	.	.
8B-/	.	4	.	.	.	.	.
8c/	.	3	.	(4b-/	4g\	2 4	.
8d-/J	.	2	.	.	.	.	.
=13	=13	=13	=13	=13	=13	=13	=13
[2c/	8r	1	.	4cc/	4a-\	.	.
.	(8C\L	5	.	.	.	.	.
.	8Dn\	4	.	4b-/	4g\	.	.
.	8En\J	3	.	.	.	.	.
4c/])	8F\L	2	.	4a-/)	4f\	.	.
.	8E\	4	.	.	.	.	.
4r	8F\	3	.	4r	4ryy	.	.
.	8G\J	2	.	.	.	.	.
=14	=14	=14	=14	=14	=14	=14	=14
!	!	!	!	!	!	!	!LO:HP:a
([2c/	8A-\L	3 1	.	4ee-/	(4e-\	1 5	<
.	8B-\	2	.	.	.	.	.
.	8A-\	3	.	(4ee-/	8cc\L	3 4	.
.	8G\J	4	.	.	8b-\J	2	.
8c/L]	2F\	5	.	4ff/)	[2a-\	1 5	.
8e-/	.	2	.	.	.	.	.
8dn/	.	1	.	(4ff/	.	5	.
8c/J	.	2	.	.	.	.	[
=15	=15	=15	=15	=15	=15	=15	=15
!	!	!	!	!	!	!	!LO:HP:a
4Bn/	[2Gn\	1	.	4ee-/	8a-\L]	4	>
.	.	.	.	.	8g\	1	.
8An/L	.	3	.	4ddn/	8f#X\	2 5	.
8B/J	.	2	.	.	8fn\J	1	.
4c/)	8G\L]	1	.	4ee-/)	4e-\)	4	]
.	8F\	5	.	.	.	.	.
4r	8E-\	3	.	4r	4r	.	.
.	8Dn\J)	4	.	.	.	.	.
!LO:LB:g=original	!	!	!	!	!	!	!
=16	=16	=16	=16	=16	=16	=16	=16
*xywh-7:299,2223,5163,899	*	*	*	*xywh-7:299,2223,5163,899	*	*	*
[2c/	(2C\	5	.	4ee-/	8g\L	1	.
.	.	.	.	.	8b-\	3	.
.	.	.	.	(4ee-/	8a-\	2	.
.	.	.	.	.	8g\J	1	.
8c/L]	2D-\	.	.	(2ff/)	8f\L	1	.
8B-/	.	2	.	.	8g\	1	.
8A-/	.	3	.	.	8a-\	2	.
8G/J	.	1	.	.	8b-\J	3	.
=17	=17	=17	=17	=17	=17	=17	=17
!	!	!	!	!	!	!	!LO:HP:a
[2A-/	8C\L	5 2	.	4ee-/)	4cc\	1 4	<
.	8D-\	4	.	.	.	.	.
.	8E-\	3	.	(4ee-/	[4cc\	5 3	.
.	8En\J	5	.	.	.	.	.
8A-/L]	4F\	4	.	4dd-/)	4cc\]	4	.
(8a-/N	.	1	.	.	.	.	.
8g/	4G\)	2 2	.	(4dd-/	[4b-\	4 5	[
8f/J	.	1	.	.	.	.	.
*v	*v	*	*	*	*	*	*
=18	=18	=18	=18	=18	=18	=18
!	!	!	!LO:TX:a:i:t=poco	!	!	!
8A-\L	1	.	4cc/)	4e-\NN) 4b-]	2	.
(<8AA-\	5	.	.	.	.	.
!	!	!	!	!	!	!LO:HP:a
8C\	4	.	(4cc/	2e-\ 2a-	1 3	<
8D-\J	3	.	.	.	.	.
8E-\L	2	.	(2b-/)	.	.	.
8F\	1	.	.	.	.	.
8E-\	3	.	.	(4e-\N [4g	.	.
8D-\J	4	.	.	.	.	.
=19	=19	=19	=19	=19	=19	=19
*^	*	*	*	*	*	*
4C\	4e-/NN	5	.	4.ee-/)	8g\L]	.	.
.	.	.	.	.	8b-\J	.	.
2c/	4F\	2 1	.	.	[4a-\	.	.
.	.	.	.	(8cc/	.	4	.
.	4BB-\	5	.	4.dd-/	8a-\L]	.	.
.	.	.	.	.	8f\J	1	.
[4B-/	4E-\	2	.	.	[4g\	2	.
.	.	.	.	8b-/	.	.	.
=20	=20	=20	=20	=20	=20	=20	=20
4B-/]	4AA-\	.	.	4cc/)	8g\L]	.	.
.	.	.	.	.	8en\	1	.
8A-/L	4D-\	4 1	.	(4cc/	8f\	2	.
8F/J	.	2	.	.	8a-\J	3	.
2G/	8E-\L	3 1	.	(2b-/)	8g\L	1	.
.	8F\	2	.	.	8a-\	2	.
.	8E-\	3	.	.	8g\	1	.
.	8D-\J)	4	.	.	8f\J	2	.
=21	=21	=21	=21	=21	=21	=21	=21
[2A-/	4C\	5	.	4ee-/)	8e-\L	.	.
.	.	.	.	.	8en\	1	.
.	8D-\L	.	.	(4dd-/	8f\	2 5	.
.	8E-\J	.	.	.	8g\J	1	.
4A-/]	4F\	2	.	4cc/	8a-\L	2 4	.
.	.	.	.	.	8e\	1	.
!	!	!	!	!	!	!	!LO:HP:a
(4B-/	4BB-\	.	.	4dd-/	8g\	2	>
.	.	.	.	.	8f\J	.	.
=22	=22	=22	=22	=22	=22	=22	=22
2G/	4C\	3 1	.	4.cc/	8en\L	1 5	.
.	.	.	.	.	8e-X\	2	.
.	4E-\	2	.	.	8dn\	1	.
.	.	.	.	8b-/	8d-X\J	2	.
[2A-/)	4AA-\	.	.	4a-/)	8c\L	1	]
.	.	.	.	.	8d-\	2	.
!	!	!	!	!LO:TX:a:i:t=3.)	!	!	!
.	4r	.	.	(4e-/	8c\	1	.
.	.	.	.	.	8B-\J	2	.
*	*	*	*	*v	*v	*	*
=23	=23	=23	=23	=23	=23	=23
*ped	*	*	*	*	*	*
8A-/L]	[1AA-	.	.	4c/) 4a-	.	f
8G/	.	1	.	.	.	.
8F/	.	2	.	((4c/ 4a-	1 4	.
8E-/J	.	3	.	.	.	.
8F/L	.	2	.	4d-/)) 4b-	2 5	.
8E-/	.	3	.	.	.	.
8F/	.	2	.	(>(4d-/ 4b-	1 4	.
8G/J	.	1	.	.	.	.
!LO:LB:g=original	!	!	!	!	!	!
=24	=24	=24	=24	=24	=24	=24
*	*	*	*	*^	*	*
*xywh-7:263,3001,5327,1292	*	*	*	*xywh-7:263,3001,5327,1292	*	*	*
8A-/L	1AA-_	2	.	4cc/) 4c	4c/yy	.	.
8G/	.	.	.	.	.	.	.
8F/	.	.	.	4b-/ 4d-	4d-/yy	1 4	.
8E-/J	.	.	.	.	.	.	.
8F/L	.	.	.	4a-/) 4c	4c/yy	1 3	.
8E-/	.	.	.	.	.	.	.
8F/	.	.	.	(4g/ 4e-	4e-\yy	5 3	.
8G/J	.	.	.	.	.	.	.
=25	=25	=25	=25	=25	=25	=25	=25
8A-/L	1AA-_	.	.	4f/	4e-\	.	.
8G/	.	.	.	.	.	.	.
8F/	.	2	.	2a-/	8d-\L	.	.
8E-/J	.	1	.	.	8c\J	.	.
8F/L	.	.	.	.	2d-\	.	.
8E-/	.	.	.	.	.	.	.
8F/	.	.	.	(4f/	.	4	.
8G/J	.	.	.	.	.	.	.
=26	=26	=26	=26	=26	=26	=26	=26
8A-/L	1AA-_	.	.	4e-/)) 4c	4c/yy	1 3	.
8G/	.	.	.	.	.	.	.
8F/	.	.	.	(4ee-/	2cc\	3 5	<
8E-/J	.	.	.	.	.	.	.
8F/L	.	.	.	4dd-/)	.	.	.
8E-/	.	.	.	.	.	.	.
8F/	.	.	.	(4dd-/	[4b-\	2 4	.
8G/J	.	.	.	.	.	.	.
=27	=27	=27	=27	=27	=27	=27	=27
8A-/L	1AA-_	.	.	4cc/)	4b-\]	5	.
8G/	.	.	.	.	.	.	.
8F/	.	.	.	(4cc/	(<2a-\	3 5	.
8E-/J	.	.	.	.	.	.	.
8F/L	.	.	.	(2b-/)	.	4	.
8E-/	.	.	.	.	.	.	.
8F/	.	.	.	.	8g\L	2	[
8G/J	.	.	.	.	8f\J	1	.
=28	=28	=28	=28	=28	=28	=28	=28
8A-/L	1AA-_	.	.	4cc/) 4e-	4e-/)yy	.	.
8G/	.	.	.	.	.	.	.
!	!	!	!	!	!	!	!LO:DY:a
8F/	.	.	.	(4ee-/	2cc\	.	p
8E-/J	.	.	.	.	.	.	.
8F/L	.	.	.	4dd-/)	.	.	.
8E-/	.	.	.	.	.	.	.
8F/	.	.	.	(4dd-/	[4b-\	.	.
8G/J	.	.	.	.	.	.	.
=29	=29	=29	=29	=29	=29	=29	=29
8A-/L	1AA-_	.	.	4cc/)	4b-\]	.	.
8G/	.	.	.	.	.	.	.
8F/	.	.	.	(4cc/	(<4a-\	.	.
8E-/J	.	.	.	.	.	.	.
8F/L	.	.	.	(2b-/)	8g\L	2	.
8E-/	.	.	.	.	8f\	1	.
8F/	.	.	.	.	8e-\	2	.
8G/J	.	.	.	.	8d-\J	1	.
=30	=30	=30	=30	=30	=30	=30	=30
8A-/L	1AA-_	.	.	4cc/) 4c	4c/)yy	.	.
8G/	.	.	.	.	.	.	.
8F/	.	.	.	(4dd-/ 4f	4f/yy	.	f
8E-/J	.	.	.	.	.	.	.
8F/L	.	.	.	4cc/ 4e-	4e-/yy	.	.
8E-/	.	.	.	.	.	.	.
8F/	.	.	.	4b-/ 4d-	4d-/yy	.	.
8G/J	.	.	.	.	.	.	.
=31	=31	=31	=31	=31	=31	=31	=31
!LO:TX:a:i:t=riten.	!	!	!	!	!	!	!
8A-/L	1AA-_	.	.	[1a-)	4c\	.	.
8G/	.	.	.	.	.	.	.
8F/	.	.	.	.	4e-\	3	.
8E-/J	.	.	.	.	.	.	.
8F/L	.	.	.	.	4d-\	2	.
8E-/	.	.	.	.	.	.	.
8F/	.	.	.	.	8A-\L	1	.
8G/J	.	.	.	.	8B-\J	2	.
=32	=32	=32	=32	=32	=32	=32	=32
1E-	1AA-]	2	.	1a-;]	1c	1	.
*v	*v	*	*	*	*	*	*
*	*	*	*v	*v	*	*
==	==	==	==	==	==
*-	*-	*-	*-	*-	*-
!!!system-decoration: {(s1,s2)}
!!!RDF**kern: N = linked
!!!RDF**kern: NN = linked
!!!RDF**kern: > = above
!!!RDF**kern: < = below
!!!ENC: Filip Voros
!!!END: 2022-03-12
!!!ENC: Natalia Wrzos
!!!END: 2022-03-16
!!!ENC-iiif: Natalia Wrzos
!!!END-iiif: 2022-08-19
!!!YEC: Copyright 2022 Narodowy Instytut Fryderyka Chopina (https://polishscores.org)
!!!YEM: License CC-BY-4.0 (https://creativecommons.org/licenses/by/4.0)
